packages/kaspersky-hexa-ui-icons/src/iconsSVGs/24/X.svg

<svg width="24" height="24" viewBox="0 0 24 24" fill="none" xmlns="http://www.w3.org/2000/svg">
<path fill-rule="evenodd" clip-rule="evenodd" d="M2.98096 3H8.67196L13.0963 9.45007L18.6635 3H20.52L13.9185 10.6487L21.019 21H15.328L10.7476 14.3226L4.98447 21H3.12747L9.9254 13.1239L2.98096 3ZM18.171 19.5L7.88196 4.5H5.82896L16.118 19.5H18.171Z" fill="black"/>
</svg>

<svg xmlns="http://www.w3.org/2000/svg" width="24" height="24" fill="none" viewBox="0 0 24 24"><path fill="#000" fill-rule="evenodd" d="M2.981 3h5.691l4.4243 6.45L18.6635 3H20.52l-6.6015 7.6487L21.019 21h-5.691l-4.5804-6.6774L4.9845 21h-1.857l6.7979-7.8761zm15.19 16.5L7.882 4.5H5.829l10.289 15z" clip-rule="evenodd"/></svg>
